!!!OTL-incipit: JETZT GEH ICH ANS BRUENNELEIN
!!!ARE: Europa, Mitteleuropa, Deutschland, Rhein; Schwaben
!!!SCT: Z0299
!!!TXL: @@DE
!!!YEM: Copyright 1995, estate of Helmut Schaffrath.
**kern	**text
*ICvox	*
*M3/8	*
*k[f#]	*
*G:	*
!LO:TX:a:t=Vom Rhein und Schwaben.	!
{8d	Jetʒt
=1	=1
8.g	geh
16f#	ich
16gL	an's
16aJ	.
=2	=2
8.b	Brün-
16cc	-ne-
8b	-lein,
=3	=3
16bL	trink
16aJ	.
8a	a-
16aL	-ber
16bJ	.
=4	=4
8g	nicht,
8r}	.
{8g	jetʒt
=5	=5
8.b/	geh
16a	ich
16bL	an's
16ccJ	.
=6	=6
8.dd	Brünne-
16ee	.
8dd	-lein,
=7	=7
16ddL	trink
16ccJ	.
8cc	a-
8dd	-ber
=8	=8
8b	nicht,
8r}	.
{8dd	da
=9	=9
(16ddL	ſuch
16ccJ)	.
8cc	ich
[16cc	mein
16cc]	.
=10	=10
8b	Schätʒe-
(16ddL	.
16ccJ)	.
8b	-lein,
=11	=11
8a	ſind's
8a	a-
8a	-ber
=12	=12
8b	nicht.
8r}	.
{8dd	da
=13	=13
(16ddL	ſuch
16ccJ)	.
8cc	ich
[16cc	mein
16cc]	.
=14	=14
8b	Schätʒe-
(16ddL	.
16ccJ)	.
8b	-lein,
=15	=15
8a	ſind's
8a	a-
8a	-ber
=16	=16
8b	nicht.
8r}	.
==	==
!!!AGN: Lyrisches Lied, Romanze, verlassene Liebe
!!!ONB: ESAC (Essen Associative Code) Database: ZUCCAL
!!!AMT: simple triple
!!!AIN: vox
!!!EED: Helmut Schaffrath
!!!EEV: 1.0
!!!GTL: IV. Lyrische Lieder.
!!!URL-scan: https://www.digitale-sammlungen.de/de/view/bsb11160571?page=538
!!!ENC: Anna Maria Matuszewska
!!!EEV: 2025/01/31
*-	*-
